projects/svn/images/icons/i_decor.svg

<svg width="359" height="430" viewBox="0 0 359 430" fill="none" xmlns="http://www.w3.org/2000/svg">
<path d="M90.193 402V404H91.2505L91.8458 403.126L90.193 402ZM303.027 89.6242H305.027V83.1368L301.374 88.498L303.027 89.6242ZM303.027 402H301.027V404H303.027V402ZM342.624 402V404H344.624V402H342.624ZM342.624 17.0298H344.624V15.0298H342.624V17.0298ZM307.426 17.0298V15.0298H306.369L305.773 15.9036L307.426 17.0298ZM94.5927 329.406H92.5927V335.893L96.2455 330.532L94.5927 329.406ZM94.5927 17.0298H96.5927V15.0298H94.5927V17.0298ZM54.9957 17.0298V15.0298H52.9957V17.0298H54.9957ZM54.9957 402H52.9957V404H54.9957V402ZM91.8458 403.126L304.679 90.7503L301.374 88.498L88.5402 400.874L91.8458 403.126ZM301.027 89.6242V402H305.027V89.6242H301.027ZM303.027 404H342.624V400H303.027V404ZM344.624 402V17.0298H340.624V402H344.624ZM342.624 15.0298H307.426V19.0298H342.624V15.0298ZM305.773 15.9036L92.9399 328.279L96.2455 330.532L309.079 18.1559L305.773 15.9036ZM96.5927 329.406V17.0298H92.5927V329.406H96.5927ZM94.5927 15.0298H54.9957V19.0298H94.5927V15.0298ZM52.9957 17.0298V402H56.9957V17.0298H52.9957ZM54.9957 404H90.193V400H54.9957V404Z" fill="black"/>
</svg>

<svg width="359" height="430" fill="none" xmlns="http://www.w3.org/2000/svg"><path d="M90.193 402v2h1.058l.595-.874L90.193 402zM303.027 89.624h2v-6.487l-3.653 5.361 1.653 1.126zm0 312.376h-2v2h2v-2zm39.597 0v2h2v-2h-2zm0-384.97h2v-2h-2v2zm-35.198 0v-2h-1.057l-.596.874 1.653 1.126zM94.593 329.406h-2v6.487l3.653-5.361-1.653-1.126zm0-312.376h2v-2h-2v2zm-39.597 0v-2h-2v2h2zm0 384.97h-2v2h2v-2zm36.85 1.126L304.679 90.75l-3.305-2.252L88.54 400.874l3.306 2.252zM301.027 89.624V402h4V89.624h-4zm2 314.376h39.597v-4h-39.597v4zm41.597-2V17.03h-4V402h4zm-2-386.97h-35.198v4h35.198v-4zm-36.851.874L92.94 328.279l3.306 2.253L309.079 18.156l-3.306-2.252zM96.593 329.406V17.03h-4v312.376h4zm-2-314.376H54.996v4h39.597v-4zm-41.597 2V402h4V17.03h-4zm2 386.97h35.197v-4H54.996v4z" fill="#000"/></svg>
